X: 320
T:Yellow Wattle, The
R:jig
M:6/8
L:1/8
Z:added by Alf warnock alf0@rogers.com
Z:version played for me by Greg T. Brown
K:Dmix
dcA AGE|ABA ABc|dcA ABc|dcA GED|
dcA AGE|ABA ~E3|DED c2e|dcA GED:|
~d3 ~c3|AdB ~c3|Add cde|dcA GED|
~d3 ~c3|cdd d2c|ABA ABc|dcA GED:|
